X:1
T:The Joy Of My Life
R:jig
M:6/8
L:1/8
K:G
D|:GFG AGA|Bge dBA|BAB GAB|AGE GED|
|GFG AGA|Bge dBA|BAB GAB|1 AGF G2D:|2 AGF G2f|]
|gfe fed|ege dBA|Bee dBA|Bed e2f|
|gfe fed|ege dBA|BAB GAB|AGF G2f|
|gfe fed|ege dBA|Bee dBA|Bed e2f|
|gfg aga|bge dBA|BAB GAB|AGF G2D|